!!! OTL: Berkowitz490
!!! Chapter: 1
!!! Section: IV
!!! Page: 122
!!! Mode: 
!!! Encoder: DJB
**kern
*staff1
*I"Piano
=1-
*clefC3
*k[f#]
*e:
*M2/4
16B\LL
16e\
16g\
16a#\JJ
16cc\LL
16b\
16cc\
16b\JJ
=2
16a\LL
16g#\
16a\
16b\JJ
16a\LL
16gn\
16f#\
16e\JJ
=3
16B\LL
16e\
16g\
16a#\JJ
16b\LL
16a#\
16b\
16cc\JJ
=4
16b\LL
16a\
16g\
16f#\JJ
8e\L
8e-\J
=5
16d\LL
16g\
16b\
16cc#\JJ
16dd\LL
16cc#\
16dd\
16b\JJ
=6
!!linebreak:original
16cc\LL
16b\
16cc\
16dd\JJ
16cc\LL
16b\
16a\
16g\JJ
=7
16d\LL
16g\
16b\
16cc#\JJ
16dd\LL
16cc#\
16dd\
16ee\JJ
=8
16dd\LL
16cc\
16b\
16a\JJ
4g\
=9
16r
8cc\L
16b\Jk
16a\LL
16g\
16f#\
16cc\JJ
=10
16b\LL
16a\
16g\
16f#\JJ
4e\
=11
16r
8a\L
16g\Jk
16f#\LL
16e\
16d#\
16e\JJ
=12
!!linebreak:original
8f#\
4a#\
8b\
=13
16B\LL
16e\
16g\
16a#\JJ
16b\LL
16a#\
16b\
16g#\JJ
=14
16a\LL
16g#\
16a\
16b\JJ
16a\LL
16gn\
16f#\
16e\JJ
=15
16ee\LL
16dd\
16cc\
16b\JJ
16a\LL
16g#\
16a\
16a#\JJ
=16
8b\L
8B\J
4e\
==
*-
